X: 42041
T: Jack's Delight
O: Trad
B: RSCDS 42-4
R: reel
Z: 2003 John Chambers <jc:trillian.mit.edu>
M: C|
L: 1/8
%--------------------
K: D
|: A2 \
| "D"d2d2 "A7"cecA | "D"d2fd A2ef | "Em"g2gf "E7"e2ed | "A"cecB "A7"ABcA || "D"d2d2 "A7"cecA |
| "D"d2fd A2ef | "Em"gfge "A7"cABc | "D"d2f2 d2"A7"AG |]| "D"FAFA dAFA | "Em"AGFG E3F | GBGB "E7"edcd |
| "A"cA"E"B^G "A7"A2AG || "D"FAFA dAFA | "G"GBGB "Em"dBGB | "A7"Aced cABc | "D"d2"A"f2 "D"d2 |]
%%center Book42/42041-Jacks_Delight-1.abc

%%sep 1 1 500
%%sep 1 1 500

